T: Durham Rangers
M: 4/4
L: 1/8
K: Dmaj
Instead of |:ag|fefg afdg|fefg a2gf| we used to play a version at school that arpeggios down to A:|:FG|ABAF A2de|fgef d2dA|BcdB ABAF|G2E2 E2FG|ABAF A2de|fgef d2dA|BcdB ABAG|F2D2 D2:||:ag|fefg afdf|edcB Adfa|g2bg f2af|g2e2 e2FG|ABAF A2de|fgef d2dA|BcdB ABAG|F2D2 D2:|
